exported-svg/bold.svg

<svg height="24" viewBox="0 0 24 24" width="24" xmlns="http://www.w3.org/2000/svg"><path d="m15.9864168 12.2512822c1.7548803.6139031 3.0135832 2.2843175 3.0135832 4.2487178 0 2.4852814-2.0147186 4.5-4.5 4.5h-9c-.27614237 0-.5-.2238576-.5-.5v-8-8c0-.27614237.22385763-.5.5-.5h8c2.4852814 0 4.5 2.01471863 4.5 4.5 0 1.5660582-.7999799 2.9452711-2.0135832 3.7512822zm-2.4864168.7487178h-7.5v7h8.5c1.9329966 0 3.5-1.5670034 3.5-3.5s-1.5670034-3.5-3.5-3.5zm0-1c1.9329966 0 3.5-1.5670034 3.5-3.5 0-1.93299662-1.5670034-3.5-3.5-3.5h-7.5v7z"/></svg>

<?xml version="1.0" encoding="UTF-8"?>
<svg width="24px" height="24px" viewBox="0 0 24 24" version="1.1" xmlns="http://www.w3.org/2000/svg" xmlns:xlink="http://www.w3.org/1999/xlink">
    <!-- Generator: Sketch 55.2 (78181) - https://sketchapp.com -->
    <title>bold</title>
    <desc>Created with Sketch.</desc>
    <g id="bold" stroke="none" stroke-width="1" fill="none" fill-rule="evenodd">
        <path d="M15.9864168,12.2512822 C17.7412971,12.8651853 19,14.5355997 19,16.5 C19,18.9852814 16.9852814,21 14.5,21 L5.5,21 C5.22385763,21 5,20.7761424 5,20.5 L5,12.5 L5,4.5 C5,4.22385763 5.22385763,4 5.5,4 L13.5,4 C15.9852814,4 18,6.01471863 18,8.5 C18,10.0660582 17.2000201,11.4452711 15.9864168,12.2512822 Z M13.5,13 L6,13 L6,20 L14.5,20 C16.4329966,20 18,18.4329966 18,16.5 C18,14.5670034 16.4329966,13 14.5,13 L13.5,13 Z M13.5,12 C15.4329966,12 17,10.4329966 17,8.5 C17,6.56700338 15.4329966,5 13.5,5 L6,5 L6,12 L13.5,12 Z" id="Combined-Shape" fill="#000000" fill-rule="nonzero"></path>
    </g>
</svg>
